images/icons/redbubble.svg

<svg fill="none" height="24" viewBox="0 0 24 24" width="24" xmlns="http://www.w3.org/2000/svg" xmlns:xlink="http://www.w3.org/1999/xlink"><clipPath id="a"><path d="m0 0h24v24h-24z"/></clipPath><g clip-path="url(#a)"><path d="m16.5726 16.335h-3.1968c-.085-.0003-.1665-.0342-.2266-.0945-.06-.0603-.0936-.142-.0934-.2271v-8.02319c0-.17725.1436-.32078.32-.32078h2.9639c2.2242 0 2.6908 1.30974 2.6908 2.40777 0 .6353-.1686 1.1396-.5035 1.5097.8157.3364 1.2549 1.0949 1.2549 2.192 0 1.6008-1.2 2.5561-3.2093 2.5561zm-4.6414-.0001h-6.63957c-.04209-.0001-.08374-.0085-.12258-.0248-.03883-.0162-.07408-.0399-.10373-.0698-.02965-.0298-.05312-.0653-.06906-.1042-.01594-.039-.02404-.0807-.02383-.1228v-8.02318c0-.17724.14274-.32077.3192-.32077h3.10182c1.93715 0 3.09315 1.0431 3.09315 2.79045 0 1.1624-.5843 2.0752-1.52619 2.4462l2.20929 2.8947c.0406.0463.0669.1033.0761.1642.0091.0608.0005.123-.0247.1792-.0251.0561-.0659.1039-.1174.1376-.0515.0336-.1116.0518-.1732.0523m.0118-16.3127598c-6.62222 0-11.9916164 5.3691598-11.9916164 11.9915598 0 6.624 5.3691564 11.9934 11.9922164 11.9934 6.623 0 11.9916-5.3691 11.9916-11.9922 0-6.623-5.3676-11.9915598-11.991-11.9915598" fill="#e41321"/></g></svg>

<svg width="24" height="24" viewBox="0 0 24 24" fill="none" xmlns="http://www.w3.org/2000/svg">
<g clip-path="url(#clip0_1432_8746)">
<path d="M16.5726 16.335H13.3758C13.2908 16.3347 13.2093 16.3008 13.1492 16.2405C13.0892 16.1802 13.0556 16.0985 13.0558 16.0134V7.99021C13.0558 7.81296 13.1994 7.66943 13.3758 7.66943H16.3397C18.5639 7.66943 19.0305 8.97917 19.0305 10.0772C19.0305 10.7125 18.8619 11.2168 18.527 11.5869C19.3427 11.9233 19.7819 12.6818 19.7819 13.7789C19.7819 15.3797 18.5819 16.335 16.5726 16.335ZM11.9312 16.3349H5.29163C5.24954 16.3348 5.20789 16.3264 5.16905 16.3101C5.13022 16.2939 5.09497 16.2702 5.06532 16.2403C5.03567 16.2105 5.0122 16.175 4.99626 16.1361C4.98032 16.0971 4.97222 16.0554 4.97243 16.0133V7.99012C4.97243 7.81288 5.11517 7.66935 5.29163 7.66935H8.39345C10.3306 7.66935 11.4866 8.71245 11.4866 10.4598C11.4866 11.6222 10.9023 12.535 9.96041 12.906L12.1697 15.8007C12.2103 15.847 12.2366 15.904 12.2458 15.9649C12.2549 16.0257 12.2463 16.0879 12.2211 16.1441C12.196 16.2002 12.1552 16.248 12.1037 16.2817C12.0522 16.3153 11.9921 16.3335 11.9305 16.334M11.9423 0.0212402C5.32008 0.0212402 -0.0493164 5.3904 -0.0493164 12.0128C-0.0493164 18.6368 5.31984 24.0062 11.9429 24.0062C18.5659 24.0062 23.9345 18.6371 23.9345 12.014C23.9345 5.391 18.5669 0.0224402 11.9435 0.0224402" fill="#E41321"/>
</g>
<defs>
<clipPath id="clip0_1432_8746">
<rect width="24" height="24" fill="white"/>
</clipPath>
</defs>
</svg>
